X:176
T:Kevin Keegan
Z: id:dc-reel-381
M:C
L:1/8
K:D Major
de|fgfe d2Bd|ADFD ADFA|fgfe dfab|afdf edBc|!
dBcA BAGB|ADFD ADFA|baa2 fdd2|egfe d2:|!
Bc|d2fd adfa|bagb agfe|d2fd adfd|cAeA fAec|!
d2fd adfa|bagb a3f|g3e fgaf|gfed cA:|!

